X:1
T:Title
%%score { 1 | 2 }
L:1/8
Q:1/4=100
M:4/4
K:C
V:1 treble nm="Grand Piano"
V:2 bass 
V:1
 [Ec]2 [CE][DF] [EG]3 [Ec] | [Ge]2 [Fd]2 [Ec]4 | c2 cc [Ec]3 [Ec] | B2 c2 d4 | %4
w: Asa~Hull * * * *||||
 [Ec]2 [CE][DF] [EG]3 [Ec] | [Ge]2 [Fd]2 [Ec]4 | [Ac]2 [GB][FA] [EG]3 [Gc] | d2 B2 [Ec]4 | %8
w: ||||
 A2 A>B c>B A^G | A4 [CEG]2 [DFG]>[DFG] |[M:9/8] [CEG]3- [CEG]/[Ec]<Bc/ d3 | %11
w: |||
[M:4/4] [EG]2 [EG]>[FA] [EG]3 [EG] | [Ec]2 [CE]2 [EG]4 | e2 e>e d2 z2 | c2 c>c [^GB]2 z2 | %15
w: ||||
 A2 A>A G3 [Ec] | [Ge]2 [Fd]2 [Ec]4 | [Ec]2 [Fc]>[Fc] [Ec]3- [Ec]/[EG]/ | [EG]3- [EG]/E/ E4 |] %19
w: ||||
V:2
 [C,G,]2 [C,G,][C,C] [C,C]3 [C,C] | [G,C]2 [G,,B,]2 [C,C]4 | %2
 [F,A,F]2 [F,A,F][F,A,F] [C,G,]3 [C,G,] | [G,D]2 [G,CE]2 [G,B,F]4 | %4
 [C,C]2 [C,G,][C,C] [C,C]3 [C,C] | [G,C]2 [G,,B,]2 [C,C]4 | [F,C]2 [F,C][F,C] [C,C]3 [E,C] | %7
 [F,A,F]2 [G,D]2 [C,G,]4 | A,2 A,>B, C>B, A,^G, | A,4 C,2 B,,>B,, | %10
[M:9/8] C,3- C,/[C,G,]<[K:treble][G,D][G,CE]/ [G,B,F]3 |[M:4/4][K:bass] C,2 C,>C, C,3 C, | %12
 C,2 C,2 C,4 | [CG]2 [CG]>[CG] [G,B,G]2 z2 | [A,EA]2 [A,EA]>[A,EA][K:bass] [E,E]2 z2 | %15
 [F,CF]2 [F,CF]>[F,CF] [E,C]3 [C,C] | [G,C]2 [G,,B,]2 [C,C]4 | %17
 [C,G,]2 [C,A,]>[C,A,] [C,G,]3- [C,G,]/[C,C]/ | [C,C]3- [C,C]/[C,G,C]/ [C,G,C]4 |] %19

